sources/design/Outline/n.svg

<svg:svg xmlns:cc="http://creativecommons.org/ns#" xmlns:dc="http://purl.org/dc/elements/1.1/" xmlns:inkscape="http://www.inkscape.org/namespaces/inkscape" xmlns:rdf="http://www.w3.org/1999/02/22-rdf-syntax-ns#" xmlns:sodipodi="http://sodipodi.sourceforge.net/DTD/sodipodi-0.dtd" xmlns:svg="http://www.w3.org/2000/svg" xml:space="preserve" width="1000" height="1000" version="1.1" style="clip-rule:evenodd;fill-rule:evenodd;image-rendering:optimizeQuality;shape-rendering:geometricPrecision;text-rendering:geometricPrecision" viewBox="0 0 1000 1000" id="svg10" sodipodi:docname="n.svg" inkscape:version="1.1.1 (3bf5ae0d25, 2021-09-20)"><svg:text text-anchor="middle" x="213.84598" y="142.74805" id="top" inkscape:label="top" style="clip-rule:evenodd;fill-rule:evenodd;image-rendering:optimizeQuality;shape-rendering:geometricPrecision;text-rendering:geometricPrecision">✛</svg:text><svg:metadata id="metadata14"><rdf:RDF><cc:Work rdf:about=""><dc:format>image/svg+xml</dc:format><dc:type rdf:resource="http://purl.org/dc/dcmitype/StillImage" /></cc:Work></rdf:RDF></svg:metadata><sodipodi:namedview pagecolor="#ffffff" bordercolor="#666666" borderopacity="1" objecttolerance="10" gridtolerance="10" guidetolerance="10" inkscape:pageopacity="0" inkscape:pageshadow="2" inkscape:window-width="1920" inkscape:window-height="1009" id="namedview12" showgrid="false" inkscape:zoom="0.84890884" inkscape:cx="170.21851" inkscape:cy="139.00197" inkscape:window-x="1920" inkscape:window-y="0" inkscape:window-maximized="1" inkscape:current-layer="svg10" showguides="true" inkscape:guide-bbox="true" inkscape:document-rotation="0" inkscape:pagecheckerboard="0"><sodipodi:guide position="0,1000" orientation="0,1" id="guide16" inkscape:label="" inkscape:locked="true" inkscape:color="rgb(0,0,255)" /><sodipodi:guide position="1763.3122,2036.1693" orientation="1000,0" id="guide18" /><sodipodi:guide position="0,200" orientation="0,1" id="guide20" inkscape:label="base" inkscape:locked="true" inkscape:color="rgb(0,0,255)" /><inkscape:grid type="xygrid" id="grid24" originx="-473.37552" originy="-489.69235" /><sodipodi:guide position="0,0" orientation="0,1" id="guide34" inkscape:label="bottom" inkscape:locked="true" inkscape:color="rgb(0,0,255)" /><sodipodi:guide position="225.05109,1693.3186" orientation="0,1" id="guide44" inkscape:label="" inkscape:locked="false" inkscape:color="rgb(0,0,255)" /><sodipodi:guide position="0,900" orientation="0,1" id="guide46" inkscape:label="" inkscape:locked="true" inkscape:color="rgb(0,0,255)" /><sodipodi:guide position="482.99652,544.47785" orientation="1,0" id="guide841" inkscape:label="width" />    <sodipodi:guide position="110.73038,799.74293" orientation="0,-1" id="guide848" /></sodipodi:namedview>
 <svg:defs id="defs4"><inkscape:path-effect effect="fillet_chamfer" id="path-effect853" is_visible="true" lpeversion="1" satellites_param="F,0,1,1,0,14.490374,0,1 @ F,0,0,1,0,25.125313,0,1 @ F,0,0,1,0,0,0,1 @ F,0,0,1,0,0,0,1 @ F,0,0,1,0,0,0,1 @ F,0,0,1,0,0,0,1 @ F,0,0,1,0,0,0,1 @ F,0,0,1,0,0,0,1 @ F,0,0,1,0,0,0,1 @ F,0,0,1,0,0,0,1 @ F,0,0,1,0,0,0,1 @ F,0,0,1,0,0,0,1 @ F,0,0,1,0,25.125313,0,1 @ F,0,0,1,0,25.125313,0,1 @ F,0,0,1,0,0,0,1 @ F,0,0,1,0,0,0,1 @ F,0,0,1,0,25.125313,0,1 @ F,0,0,1,0,25.125313,0,1 @ F,0,0,1,0,0,0,1 @ F,0,0,1,0,0,0,1 @ F,0,0,1,0,0,0,1 @ F,0,0,1,0,0,0,1 @ F,0,0,1,0,0,0,1 @ F,0,0,1,0,0,0,1 @ F,0,0,1,0,0,0,1 @ F,0,0,1,0,0,0,1 @ F,0,0,1,0,0,0,1 @ F,0,0,1,0,0,0,1 @ F,0,0,1,0,0,0,1 @ F,0,1,1,0,14.490374,0,1" unit="px" method="auto" mode="F" radius="0" chamfer_steps="1" flexible="false" use_knot_distance="true" apply_no_radius="true" apply_with_radius="true" only_selected="true" hide_knots="false" /><inkscape:path-effect effect="fillet_chamfer" id="path-effect852" is_visible="true" lpeversion="1" satellites_param="F,0,1,1,0,34.675002,0,1 @ F,0,1,1,0,34.675002,0,1 @ F,0,0,1,0,0,0,1 @ F,0,0,1,0,0,0,1 @ F,0,0,1,0,0,0,1 @ F,0,0,1,0,0,0,1 @ F,0,0,1,0,0,0,1 @ F,0,0,1,0,0,0,1 @ F,0,0,1,0,0,0,1 @ F,0,0,1,0,0,0,1 @ F,0,0,1,0,0,0,1 @ F,0,0,1,0,0,0,1 @ F,0,1,1,0,34.675002,0,1 @ F,0,1,1,0,34.675002,0,1 @ F,0,0,1,0,0,0,1 @ F,0,0,1,0,0,0,1 @ F,0,1,1,0,34.675002,0,1 @ F,0,1,1,0,34.675002,0,1 @ F,0,0,1,0,0,0,1 @ F,0,0,1,0,0,0,1 @ F,0,0,1,0,0,0,1 @ F,0,0,1,0,0,0,1 @ F,0,0,1,0,0,0,1 @ F,0,0,1,0,0,0,1 @ F,0,0,1,0,0,0,1 @ F,0,0,1,0,0,0,1 @ F,0,0,1,0,0,0,1" unit="px" method="auto" mode="F" radius="0" chamfer_steps="1" flexible="false" use_knot_distance="true" apply_no_radius="true" apply_with_radius="true" only_selected="true" hide_knots="false" /><inkscape:path-effect effect="fillet_chamfer" id="path-effect850" is_visible="true" lpeversion="1" satellites_param="F,0,0,1,0,28.315543,0,1 @ F,0,0,1,0,25.639817,0,1 @ F,0,0,1,0,0,0,1 @ F,0,0,1,0,0,0,1 @ F,0,0,1,0,0,0,1 @ F,0,0,1,0,0,0,1 @ F,0,0,1,0,0,0,1 @ F,0,0,1,0,0,0,1 @ F,0,0,1,0,0,0,1 @ F,0,0,1,0,0,0,1 @ F,0,0,1,0,0,0,1 @ F,0,0,1,0,21.830445,0,1 @ F,0,0,1,0,28.437911,0,1 @ F,0,0,1,0,0,0,1 @ F,0,0,1,0,0,0,1 @ F,0,0,1,0,27.391318,0,1 @ F,0,0,1,0,20.658701,0,1 @ F,0,0,1,0,0,0,1 @ F,0,0,1,0,0,0,1 @ F,0,0,1,0,0,0,1 @ F,0,0,1,0,0,0,1 @ F,0,0,1,0,0,0,1 @ F,0,0,1,0,0,0,1 @ F,0,0,1,0,0,0,1 @ F,0,0,1,0,0,0,1" unit="px" method="auto" mode="F" radius="0" chamfer_steps="1" flexible="false" use_knot_distance="true" apply_no_radius="true" apply_with_radius="true" only_selected="true" hide_knots="false" /><inkscape:path-effect effect="spiro" id="path-effect849" is_visible="true" lpeversion="1" /><inkscape:path-effect effect="spiro" id="path-effect851" is_visible="true" lpeversion="1" />
  <svg:style type="text/css" id="style2">
   
    .fil0 {fill:#EF7F1A;fill-rule:nonzero}
   
  </svg:style>
 <inkscape:path-effect effect="spiro" id="path-effect1214" is_visible="true" lpeversion="1" /><inkscape:path-effect effect="spiro" id="path-effect1195" is_visible="true" lpeversion="1" /><inkscape:path-effect effect="spiro" id="path-effect992" is_visible="true" lpeversion="1" /><inkscape:path-effect effect="spiro" id="path-effect1060" is_visible="true" lpeversion="1" /><inkscape:path-effect effect="spiro" id="path-effect1047" is_visible="true" lpeversion="1" /><inkscape:path-effect effect="spiro" id="path-effect1085" is_visible="true" lpeversion="1" /><inkscape:path-effect effect="spiro" id="path-effect1286" is_visible="true" lpeversion="1" /></svg:defs>
 
<svg:g id="path847"><svg:path style="color:#000000;clip-rule:nonzero;fill:#1a5fb4;fill-rule:nonzero;stroke-linecap:round;stroke-linejoin:round;-inkscape-stroke:none;paint-order:fill stroke markers;shape-rendering:auto" d="M 325.86523,170.48437 C 298.46935,171.38825 272.49471,180.76475000000002 250.39453,194.06641000000002 C 221.31732,211.56739000000002 199.01170000000002,235.15428000000003 179.63672,258.06641 C 174.2673,264.41608 169.05583,270.89294 163.91797,277.42773 C 163.58443,259.55153 163.05624,241.6789 162.15234,223.82227 C 160.62008,193.55236 131.60077,169.86694 101.81641000000002,173.88867 L 33.121094000000014,183.16405999999998 C 3.3719042000000137,187.18104999999997 -17.873964999999984,217.95547999999997 -11.654296999999985,247.05469 C -7.5710683999999855,266.1584 -3.8480435999999854,285.3387 -0.4843749999999858,304.58203 C 24.218665000000016,445.90655 28.687440000000013,591.49442 -7.484374999999986,727.1542999999999 C -11.042766999999985,740.4997999999999 -14.989865999999985,753.7427999999999 -19.318358999999987,766.8593699999999 C -23.725285999999986,780.2136199999999 -23.240516999999986,797.5585399999999 -12.960937999999986,810.78906 C -2.6813577999999865,824.0195799999999 14.498650000000014,828.85003 28.681641000000013,827.5351599999999 L 129.46875,818.1914099999999 C 159.22475,815.4327799999999 181.4692,783.8375699999999 175.26758,755.1992199999999 C 172.25472000000002,741.2861699999999 169.69977,727.2734799999998 167.60742000000002,713.1933599999999 C 161.91029000000003,674.8555099999999 159.7058,636.2413599999999 162.13867000000002,598.2031199999999 C 165.58583000000002,544.3063599999999 178.55235000000002,491.1593299999999 202.23437,443.7988299999999 C 218.28699,411.6959999999999 239.4153,383.5193499999999 265.99414,367.5136699999999 C 273.12399,363.2200999999999 280.05478,360.1928299999999 286.36719,358.7324199999999 C 292.55768,357.30021999999985 298.47522,357.39495999999986 302.85742,358.62890999999985 C 308.62961,360.25423999999987 315.43899999999996,365.04865999999987 320.73437,371.97265999999985 C 326.20565,379.12665999999984 330.64372000000003,388.84704999999985 334.13672,400.1699199999998 C 344.6467,434.2389799999998 344.64675,472.9159599999998 339.74023,512.1855499999998 C 334.82018,551.5634899999998 325.09612,592.2403999999998 318.78906,635.4960899999999 C 312.07047,681.5742199999999 309.81428,728.2802099999999 312.04492,774.7851599999999 C 313.51786,805.4933599999999 340.67593,828.6779999999999 370.70312,826.7089799999999 L 483.85156,819.2890599999998 C 493.81435,818.6357599999999 510.4939,813.7254799999998 517.12305,796.4101599999998 C 523.7522,779.0948399999997 515.3764500000001,765.4794799999997 508.99414,758.1640599999998 C 504.84748,753.4111599999999 501.00034,748.3884099999998 497.49219,743.1464799999999 C 494.5261,738.7145199999999 488.01248,727.0224399999998 485.75194999999997,722.0761699999999 C 474.07610999999997,696.5282 468.78069999999997,666.6178399999999 468.08007999999995,636.0507799999999 C 467.27489999999995,600.9219699999999 472.23876999999993,564.3219799999999 477.5293,526.32422 C 482.87253,487.94791999999995 488.46178,448.21543999999994 488.98242,406.97852 C 489.50394,365.67205 484.80827999999997,322.70289 469.26758,281.79883 C 460.17166000000003,257.85783000000004 447.11399,234.10901 427.89844,214.08984 C 408.5261,193.90733 383.17388,178.09614000000002 353.64453,172.57227 C 344.28729,170.82187 334.99719999999996,170.18308 325.86523,170.48437 M 327.81055,230.56445000000002 C 332.90626,230.35046000000003 337.87358,230.66452 342.61132999999995,231.55078000000003 C 357.53231999999997,234.34196000000003 372.67078999999995,243.19674000000003 384.61328,255.63867000000005 C 396.71256,268.24395000000004 406.21473999999995,284.77720000000005 413.17969,303.10937000000007 C 425.15366,334.6256000000001 429.44285,370.06235000000004 428.98633,406.2207000000001 C 428.52893,442.44860000000006 423.44176,479.69626000000005 418.10156,518.05078 C 412.81081,556.0502 407.14263,595.8425100000001 408.0957,637.4238300000001 C 408.93152000000003,673.88953 415.08282,711.7897300000001 431.18164,747.0156200000001 C 433.38697,751.8411100000001 436.02913,757.0228100000002 438.86523,762.1113300000002 L 371.84766,766.5058600000002 C 370.22099000000003,725.6402800000002 372.26228000000003,684.6151800000002 378.16211000000004,644.1523400000002 C 383.94686,604.4788000000002 393.80708000000004,563.4046700000002 399.27734000000004,519.6230500000001 C 404.76115000000004,475.73307000000017 405.66531000000003,428.4955400000001 391.4707,382.48242000000016 C 386.71138,367.0546600000002 379.92969000000005,350.60630000000015 368.39453000000003,335.52344000000016 C 356.68347000000006,320.2105700000002 340.29364000000004,306.8373300000002 319.11914,300.87500000000017 C 303.1486,296.3780100000002 287.25335,296.9436200000002 272.84375,300.27734000000015 C 258.55606,303.5828700000001 246.0246,309.49900000000014 235.04102,316.11328000000015 C 203.15077,335.3174700000001 179.88132000000002,363.04455000000013 162.10156,392.48242000000016 C 162.2107,390.2953600000002 162.29590000000002,388.10740000000015 162.39648,385.91992000000016 C 180.89947999999998,354.5145400000002 201.93759,324.61488000000014 225.45117,296.80859000000015 C 243.11252,275.9229500000001 261.26991,257.5519400000002 281.33594,245.47461000000015 C 296.09318,236.59252000000015 312.52341,231.20644000000016 327.81055,230.56445000000016 L 327.81055,230.56445000000002 M 102.53124999999997,234.33789000000002 C 104.47763999999997,276.66341 104.82409999999997,319.06484 103.44726999999997,361.41211 C 103.37146999999997,363.74404 103.21675999999998,366.07271 103.13085999999997,368.4043 C 93.008284,386.44185 83.712539,404.93836 75.201172,423.79102 C 71.758191,380.23423 66.081169,336.93056 58.621094,294.25195 C 55.545429,276.65627 52.127895,259.12109 48.472656,241.63672 L 102.53124999999997,234.33789000000002 M 105.85155999999998,559.24023 C 104.28873999999998,570.92935 103.00981999999998,582.64594 102.25976999999997,594.37305 C 99.51501299999998,637.28756 102.03144999999998,680.11251 108.25780999999998,722.0117200000001 C 110.11321999999998,734.4973600000001 112.39159999999998,746.9149800000001 114.91015999999998,759.2832000000001 L 43.87304699999997,765.8691400000001 C 46.19250199999997,758.1498400000002 48.41355599999997,750.4017200000002 50.49023399999997,742.6132800000001 C 66.289753,683.35829 74.746872,622.93869 77.65625,562.30859 L 105.85155999999998,559.24023" id="path1797" /></svg:g></svg:svg>

<svg:svg xmlns:cc="http://creativecommons.org/ns#" xmlns:dc="http://purl.org/dc/elements/1.1/" xmlns:inkscape="http://www.inkscape.org/namespaces/inkscape" xmlns:rdf="http://www.w3.org/1999/02/22-rdf-syntax-ns#" xmlns:sodipodi="http://sodipodi.sourceforge.net/DTD/sodipodi-0.dtd" xmlns:svg="http://www.w3.org/2000/svg" xml:space="preserve" width="1000" height="1000" version="1.1" style="clip-rule:evenodd;fill-rule:evenodd;image-rendering:optimizeQuality;shape-rendering:geometricPrecision;text-rendering:geometricPrecision" viewBox="0 0 1000 1000" id="svg10" sodipodi:docname="n.svg" inkscape:version="1.1.1 (3bf5ae0d25, 2021-09-20)"><svg:text text-anchor="middle" x="213.84598" y="142.74805" id="top" inkscape:label="top" style="clip-rule:evenodd;fill-rule:evenodd;image-rendering:optimizeQuality;shape-rendering:geometricPrecision;text-rendering:geometricPrecision">✛</svg:text><svg:metadata id="metadata14"><rdf:RDF><cc:Work rdf:about=""><dc:format>image/svg+xml</dc:format><dc:type rdf:resource="http://purl.org/dc/dcmitype/StillImage" /></cc:Work></rdf:RDF></svg:metadata><sodipodi:namedview pagecolor="#ffffff" bordercolor="#666666" borderopacity="1" objecttolerance="10" gridtolerance="10" guidetolerance="10" inkscape:pageopacity="0" inkscape:pageshadow="2" inkscape:window-width="1920" inkscape:window-height="1009" id="namedview12" showgrid="false" inkscape:zoom="0.84890884" inkscape:cx="170.21851" inkscape:cy="139.00197" inkscape:window-x="1920" inkscape:window-y="0" inkscape:window-maximized="1" inkscape:current-layer="svg10" showguides="true" inkscape:guide-bbox="true" inkscape:document-rotation="0" inkscape:pagecheckerboard="0"><sodipodi:guide position="0,1000" orientation="0,1" id="guide16" inkscape:label="" inkscape:locked="true" inkscape:color="rgb(0,0,255)" /><sodipodi:guide position="1763.3122,2036.1693" orientation="1000,0" id="guide18" /><sodipodi:guide position="0,200" orientation="0,1" id="guide20" inkscape:label="base" inkscape:locked="true" inkscape:color="rgb(0,0,255)" /><inkscape:grid type="xygrid" id="grid24" originx="-473.37552" originy="-489.69235" /><sodipodi:guide position="0,0" orientation="0,1" id="guide34" inkscape:label="bottom" inkscape:locked="true" inkscape:color="rgb(0,0,255)" /><sodipodi:guide position="225.05109,1693.3186" orientation="0,1" id="guide44" inkscape:label="" inkscape:locked="false" inkscape:color="rgb(0,0,255)" /><sodipodi:guide position="0,900" orientation="0,1" id="guide46" inkscape:label="" inkscape:locked="true" inkscape:color="rgb(0,0,255)" /><sodipodi:guide position="482.99652,544.47785" orientation="1,0" id="guide841" inkscape:label="width" />    <sodipodi:guide position="110.73038,799.74293" orientation="0,-1" id="guide848" /></sodipodi:namedview>
 <svg:defs id="defs4"><inkscape:path-effect effect="fillet_chamfer" id="path-effect853" is_visible="true" lpeversion="1" satellites_param="F,0,1,1,0,14.490374,0,1 @ F,0,0,1,0,25.125313,0,1 @ F,0,0,1,0,0,0,1 @ F,0,0,1,0,0,0,1 @ F,0,0,1,0,0,0,1 @ F,0,0,1,0,0,0,1 @ F,0,0,1,0,0,0,1 @ F,0,0,1,0,0,0,1 @ F,0,0,1,0,0,0,1 @ F,0,0,1,0,0,0,1 @ F,0,0,1,0,0,0,1 @ F,0,0,1,0,0,0,1 @ F,0,0,1,0,25.125313,0,1 @ F,0,0,1,0,25.125313,0,1 @ F,0,0,1,0,0,0,1 @ F,0,0,1,0,0,0,1 @ F,0,0,1,0,25.125313,0,1 @ F,0,0,1,0,25.125313,0,1 @ F,0,0,1,0,0,0,1 @ F,0,0,1,0,0,0,1 @ F,0,0,1,0,0,0,1 @ F,0,0,1,0,0,0,1 @ F,0,0,1,0,0,0,1 @ F,0,0,1,0,0,0,1 @ F,0,0,1,0,0,0,1 @ F,0,0,1,0,0,0,1 @ F,0,0,1,0,0,0,1 @ F,0,0,1,0,0,0,1 @ F,0,0,1,0,0,0,1 @ F,0,1,1,0,14.490374,0,1" unit="px" method="auto" mode="F" radius="0" chamfer_steps="1" flexible="false" use_knot_distance="true" apply_no_radius="true" apply_with_radius="true" only_selected="true" hide_knots="false" /><inkscape:path-effect effect="fillet_chamfer" id="path-effect852" is_visible="true" lpeversion="1" satellites_param="F,0,1,1,0,34.675002,0,1 @ F,0,1,1,0,34.675002,0,1 @ F,0,0,1,0,0,0,1 @ F,0,0,1,0,0,0,1 @ F,0,0,1,0,0,0,1 @ F,0,0,1,0,0,0,1 @ F,0,0,1,0,0,0,1 @ F,0,0,1,0,0,0,1 @ F,0,0,1,0,0,0,1 @ F,0,0,1,0,0,0,1 @ F,0,0,1,0,0,0,1 @ F,0,0,1,0,0,0,1 @ F,0,1,1,0,34.675002,0,1 @ F,0,1,1,0,34.675002,0,1 @ F,0,0,1,0,0,0,1 @ F,0,0,1,0,0,0,1 @ F,0,1,1,0,34.675002,0,1 @ F,0,1,1,0,34.675002,0,1 @ F,0,0,1,0,0,0,1 @ F,0,0,1,0,0,0,1 @ F,0,0,1,0,0,0,1 @ F,0,0,1,0,0,0,1 @ F,0,0,1,0,0,0,1 @ F,0,0,1,0,0,0,1 @ F,0,0,1,0,0,0,1 @ F,0,0,1,0,0,0,1 @ F,0,0,1,0,0,0,1" unit="px" method="auto" mode="F" radius="0" chamfer_steps="1" flexible="false" use_knot_distance="true" apply_no_radius="true" apply_with_radius="true" only_selected="true" hide_knots="false" /><inkscape:path-effect effect="fillet_chamfer" id="path-effect850" is_visible="true" lpeversion="1" satellites_param="F,0,0,1,0,28.315543,0,1 @ F,0,0,1,0,25.639817,0,1 @ F,0,0,1,0,0,0,1 @ F,0,0,1,0,0,0,1 @ F,0,0,1,0,0,0,1 @ F,0,0,1,0,0,0,1 @ F,0,0,1,0,0,0,1 @ F,0,0,1,0,0,0,1 @ F,0,0,1,0,0,0,1 @ F,0,0,1,0,0,0,1 @ F,0,0,1,0,0,0,1 @ F,0,0,1,0,21.830445,0,1 @ F,0,0,1,0,28.437911,0,1 @ F,0,0,1,0,0,0,1 @ F,0,0,1,0,0,0,1 @ F,0,0,1,0,27.391318,0,1 @ F,0,0,1,0,20.658701,0,1 @ F,0,0,1,0,0,0,1 @ F,0,0,1,0,0,0,1 @ F,0,0,1,0,0,0,1 @ F,0,0,1,0,0,0,1 @ F,0,0,1,0,0,0,1 @ F,0,0,1,0,0,0,1 @ F,0,0,1,0,0,0,1 @ F,0,0,1,0,0,0,1" unit="px" method="auto" mode="F" radius="0" chamfer_steps="1" flexible="false" use_knot_distance="true" apply_no_radius="true" apply_with_radius="true" only_selected="true" hide_knots="false" /><inkscape:path-effect effect="spiro" id="path-effect849" is_visible="true" lpeversion="1" /><inkscape:path-effect effect="spiro" id="path-effect851" is_visible="true" lpeversion="1" />
  <svg:style type="text/css" id="style2">
   
    .fil0 {fill:#EF7F1A;fill-rule:nonzero}
   
  </svg:style>
 <inkscape:path-effect effect="spiro" id="path-effect1214" is_visible="true" lpeversion="1" /><inkscape:path-effect effect="spiro" id="path-effect1195" is_visible="true" lpeversion="1" /><inkscape:path-effect effect="spiro" id="path-effect992" is_visible="true" lpeversion="1" /><inkscape:path-effect effect="spiro" id="path-effect1060" is_visible="true" lpeversion="1" /><inkscape:path-effect effect="spiro" id="path-effect1047" is_visible="true" lpeversion="1" /><inkscape:path-effect effect="spiro" id="path-effect1085" is_visible="true" lpeversion="1" /><inkscape:path-effect effect="spiro" id="path-effect1286" is_visible="true" lpeversion="1" /></svg:defs>
 
<svg:g id="path847"><svg:path style="color:#000000;clip-rule:nonzero;fill:#1a5fb4;fill-rule:nonzero;stroke-linecap:round;stroke-linejoin:round;-inkscape-stroke:none;shape-rendering:auto" d="m 325.86523,170.48437 c -27.39588,0.90388 -53.37052,10.28038 -75.4707,23.58204 -29.07721,17.50098 -51.38283,41.08787 -70.75781,64 -5.36942,6.34967 -10.58089,12.82653 -15.71875,19.36132 -0.33354,-17.8762 -0.86173,-35.74883 -1.76563,-53.60546 -1.53226,-30.26991 -30.55157,-53.95533 -60.33593,-49.9336 l -68.695316,9.27539 c -29.7491898,4.01699 -50.995059,34.79142 -44.775391,63.89063 4.0832286,19.10371 7.8062534,38.28401 11.169922,57.52734 24.70304,141.32452 29.171815,286.91239 -7,422.57227 -3.558392,13.3455 -7.505491,26.5885 -11.833984,39.70507 -4.406927,13.35425 -3.922158,30.69917 6.357421,43.92969 10.2795802,13.23052 27.459588,18.06097 41.642579,16.7461 l 100.787109,-9.34375 c 29.756,-2.75863 52.00045,-34.35384 45.79883,-62.99219 -3.01286,-13.91305 -5.56781,-27.92574 -7.66016,-42.00586 -5.69713,-38.33785 -7.90162,-76.952 -5.46875,-114.99024 3.44716,-53.89676 16.41368,-107.04379 40.0957,-154.40429 16.05262,-32.10283 37.18093,-60.27948 63.75977,-76.28516 7.12985,-4.29357 14.06064,-7.32084 20.37305,-8.78125 6.19049,-1.4322 12.10803,-1.33746 16.49023,-0.10351 5.77219,1.62533 12.58158,6.41975 17.87695,13.34375 5.47128,7.154 9.90935,16.87439 13.40235,28.19726 10.50998,34.06906 10.51003,72.74604 5.60351,112.01563 -4.92005,39.37794 -14.64411,80.05485 -20.95117,123.31054 -6.71859,46.07813 -8.97478,92.78412 -6.74414,139.28907 1.47294,30.7082 28.63101,53.89284 58.6582,51.92382 l 113.14844,-7.41992 c 9.96279,-0.6533 26.64234,-5.56358 33.27149,-22.8789 6.62915,-17.31532 -1.7466,-30.93068 -8.12891,-38.2461 -4.14666,-4.7529 -7.9938,-9.77565 -11.50195,-15.01758 -2.96609,-4.43196 -9.47971,-16.12404 -11.74024,-21.07031 -11.67584,-25.54797 -16.97125,-55.45833 -17.67187,-86.02539 -0.80518,-35.12881 4.15869,-71.7288 9.44922,-109.72656 5.34323,-38.3763 10.93248,-78.10878 11.45312,-119.3457 0.52152,-41.30647 -4.17414,-84.27563 -19.71484,-125.17969 -9.09592,-23.941 -22.15359,-47.68982 -41.36914,-67.70899 -19.37234,-20.18251 -44.72456,-35.9937 -74.25391,-41.51757 -9.35724,-1.7504 -18.64733,-2.38919 -27.7793,-2.0879 z m 1.94532,60.08008 c 5.09571,-0.21399 10.06303,0.10007 14.80078,0.98633 14.92099,2.79118 30.05946,11.64596 42.00195,24.08789 12.09928,12.60528 21.60146,29.13853 28.56641,47.4707 11.97397,31.51623 16.26316,66.95298 15.80664,103.11133 -0.4574,36.2279 -5.54457,73.47556 -10.88477,111.83008 -5.29075,37.99942 -10.95893,77.79173 -10.00586,119.37305 0.83582,36.4657 6.98712,74.3659 23.08594,109.59179 2.20533,4.82549 4.84749,10.00719 7.68359,15.09571 l -67.01757,4.39453 c -1.62667,-40.86558 0.41462,-81.89068 6.31445,-122.35352 5.78475,-39.67354 15.64497,-80.74767 21.11523,-124.52929 5.48381,-43.88998 6.38797,-91.12751 -7.80664,-137.14063 -4.75932,-15.42776 -11.54101,-31.87612 -23.07617,-46.95898 -11.71106,-15.31287 -28.10089,-28.68611 -49.27539,-34.64844 -15.97054,-4.49699 -31.86579,-3.93138 -46.27539,-0.59766 -14.28769,3.30553 -26.81915,9.22166 -37.80273,15.83594 -31.89025,19.20419 -55.1597,46.93127 -72.93946,76.36914 0.10914,-2.18706 0.19434,-4.37502 0.29492,-6.5625 18.503,-31.40538 39.54111,-61.30504 63.05469,-89.11133 17.66135,-20.88564 35.81874,-39.25665 55.88477,-51.33398 14.75724,-8.88209 31.18747,-14.26817 46.47461,-14.91016 z m -225.2793,3.77344 c 1.94639,42.32552 2.29285,84.72695 0.91602,127.07422 -0.0758,2.33193 -0.23051,4.6606 -0.31641,6.99219 C 93.008284,386.44185 83.712539,404.93836 75.201172,423.79102 71.758191,380.23423 66.081169,336.93056 58.621094,294.25195 55.545429,276.65627 52.127895,259.12109 48.472656,241.63672 Z m 3.32031,324.90234 c -1.56282,11.68912 -2.84174,23.40571 -3.59179,35.13282 -2.744757,42.91451 -0.22832,85.73946 5.99804,127.63867 1.85541,12.48564 4.13379,24.90326 6.65235,37.27148 l -71.037113,6.58594 c 2.319455,-7.7193 4.540509,-15.46742 6.617187,-23.25586 C 66.289753,683.35829 74.746872,622.93869 77.65625,562.30859 Z" id="path1797" /></svg:g></svg:svg>
